src/assets/filled/FilterSearch.svg

<svg width="24" height="24" viewBox="0 0 24 24"  xmlns="http://www.w3.org/2000/svg">
<path d="M20.7199 18.24L19.7799 17.3C20.2699 16.56 20.5599 15.67 20.5599 14.71C20.5599 12.11 18.4499 10 15.8499 10C13.2499 10 11.1399 12.11 11.1399 14.71C11.1399 17.31 13.2499 19.42 15.8499 19.42C16.8099 19.42 17.6899 19.13 18.4399 18.64L19.3799 19.58C19.5699 19.77 19.8099 19.86 20.0599 19.86C20.3099 19.86 20.5499 19.77 20.7399 19.58C21.0899 19.22 21.0899 18.62 20.7199 18.24Z" />
<path d="M19.5799 4.02V6.24C19.5799 7.05 19.0799 8.06 18.5799 8.57L18.3999 8.73C18.2599 8.86 18.0499 8.89 17.8699 8.83C17.6699 8.76 17.4699 8.71 17.2699 8.66C16.8299 8.55 16.3599 8.5 15.8799 8.5C12.4299 8.5 9.62992 11.3 9.62992 14.75C9.62992 15.89 9.93992 17.01 10.5299 17.97C11.0299 18.81 11.7299 19.51 12.4899 19.98C12.7199 20.13 12.8099 20.45 12.6099 20.63C12.5399 20.69 12.4699 20.74 12.3999 20.79L10.9999 21.7C9.69992 22.51 7.90992 21.6 7.90992 19.98V14.63C7.90992 13.92 7.50992 13.01 7.10992 12.51L3.31992 8.47C2.81992 7.96 2.41992 7.05 2.41992 6.45V4.12C2.41992 2.91 3.31992 2 4.40992 2H17.5899C18.6799 2 19.5799 2.91 19.5799 4.02Z" />
</svg>

<?xml version="1.0" encoding="UTF-8"?>
<svg width="24" height="24" viewBox="0 0 24 24" xmlns="http://www.w3.org/2000/svg">
 <path d="m20.72 18.24-0.94-0.94c0.49-0.74 0.78-1.63 0.78-2.59 0-2.6-2.11-4.71-4.71-4.71s-4.71 2.11-4.71 4.71 2.11 4.71 4.71 4.71c0.96 0 1.84-0.29 2.59-0.78l0.94 0.94c0.19 0.19 0.43 0.28 0.68 0.28s0.49-0.09 0.68-0.28c0.35-0.36 0.35-0.96-0.02-1.34z"/>
 <path d="m19.58 4.02v2.22c0 0.81-0.5 1.82-1 2.33l-0.18 0.16c-0.14 0.13-0.35 0.16-0.53 0.1-0.2-0.07-0.4-0.12-0.6-0.17-0.44-0.11-0.91-0.16-1.39-0.16-3.45 0-6.25 2.8-6.25 6.25 0 1.14 0.31 2.26 0.89998 3.22 0.5 0.84 1.2 1.54 1.96 2.01 0.23 0.15 0.32 0.47 0.12 0.65-0.07 0.06-0.14 0.11-0.21 0.16l-1.4 0.91c-1.3 0.81-3.09-0.1-3.09-1.72v-5.35c0-0.71-0.4-1.62-0.8-2.12l-3.79-4.04c-0.5-0.51-0.9-1.42-0.9-2.02v-2.33c0-1.21 0.9-2.12 1.99-2.12h13.18c1.09 0 1.99 0.91 1.99 2.02z"/>
</svg>
